packages/ui-icons/svg/Solid/table-insert-column-before.svg

<svg viewBox="0 0 1920 1920" version="1.1" xmlns="http://www.w3.org/2000/svg">
    <path d="M1129.41176,225.882353 L225.882353,225.882353 L225.882353,1694.11765 L1129.41176,1694.11765 L1129.41176,225.882353 Z M1694.11765,1355.29412 L1355.29412,1355.29412 L1355.29412,1694.11765 L1694.11765,1694.11765 L1694.11765,1355.29412 Z M1694.11765,790.588235 L1355.29412,790.588235 L1355.29412,1129.41176 L1694.11765,1129.41176 L1694.11765,790.588235 Z M1694.11765,225.882353 L1355.29412,225.882353 L1355.29412,564.705882 L1694.11765,564.705882 L1694.11765,225.882353 Z M225.882353,1920 C101.308235,1920 -2.27373675e-13,1818.69176 -2.27373675e-13,1694.11765 L-2.27373675e-13,225.882353 C-2.27373675e-13,101.421176 101.308235,-2.27373675e-13 225.882353,-2.27373675e-13 L1694.11765,-2.27373675e-13 C1818.69176,-2.27373675e-13 1920,101.421176 1920,225.882353 L1920,1694.11765 C1920,1818.69176 1818.69176,1920 1694.11765,1920 L225.882353,1920 Z M806.625882,564.705882 L806.625882,831.021176 L1072.94118,831.021176 L1072.94118,1088.97882 L806.625882,1088.97882 L806.625882,1355.29412 L548.555294,1355.29412 L548.555294,1088.97882 L282.352941,1088.97882 L282.352941,831.021176 L548.555294,831.021176 L548.555294,564.705882 L806.625882,564.705882 Z" stroke="none" stroke-width="1" fill-rule="evenodd"/>
</svg>

<svg viewBox="0 0 1920 1920" version="1.1" xmlns="http://www.w3.org/2000/svg">
    <path d="M1129.412 225.882h-903.53v1468.236h903.53V225.882zm564.706 1129.412h-338.824v338.824h338.824v-338.824zm0-564.706h-338.824v338.824h338.824V790.588zm0-564.706h-338.824v338.824h338.824V225.882zM225.882 1920C101.308 1920 0 1818.692 0 1694.118V225.882C0 101.422 101.308 0 225.882 0h1468.236C1818.692 0 1920 101.421 1920 225.882v1468.236c0 124.574-101.308 225.882-225.882 225.882H225.882zM806.626 564.706V831.02h266.315v257.958H806.626v266.315h-258.07V1088.98H282.352V831.02h266.202V564.706h258.07z" stroke="none" stroke-width="1" fill-rule="evenodd"/>
</svg>
